img/svg/clear.svg

<?xml version="1.0" encoding="utf-8"?><!DOCTYPE svg PUBLIC "-//W3C//DTD SVG 1.1//EN" "http://www.w3.org/Graphics/SVG/1.1/DTD/svg11.dtd"><svg version="1.1" baseProfile="full" xmlns="http://www.w3.org/2000/svg" xmlns:xlink="http://www.w3.org/1999/xlink" xmlns:ev="http://www.w3.org/2001/xml-events"   height="17px"   width="17px" ><path fill="rgb( 255, 102, 0 )" d="M16.7070000000001,15.293 C16.7070000000001,15.293 15.2929999999999,16.707 15.2929999999999,16.707 C15.2929999999999,16.707 8.5,9.91399999999999 8.5,9.91399999999999 C8.5,9.91399999999999 1.70700000000011,16.707 1.70700000000011,16.707 C1.70700000000011,16.707 0.29299999999989,15.293 0.29299999999989,15.293 C0.29299999999989,15.293 7.08600000000001,8.5 7.08600000000001,8.5 C7.08600000000001,8.5 0.29299999999989,1.70699999999999 0.29299999999989,1.70699999999999 C0.29299999999989,1.70699999999999 1.70700000000011,0.29300000000001 1.70700000000011,0.29300000000001 C1.70700000000011,0.29300000000001 8.5,7.08600000000001 8.5,7.08600000000001 C8.5,7.08600000000001 15.2929999999999,0.29300000000001 15.2929999999999,0.29300000000001 C15.2929999999999,0.29300000000001 16.7070000000001,1.70699999999999 16.7070000000001,1.70699999999999 C16.7070000000001,1.70699999999999 9.91399999999999,8.5 9.91399999999999,8.5 C9.91399999999999,8.5 16.7070000000001,15.293 16.7070000000001,15.293 Z "/></svg>

<svg baseProfile="full" xmlns="http://www.w3.org/2000/svg" height="17" width="17"><path fill="rgb( 255, 102, 0 )" d="M16.707 15.293l-1.414 1.414-6.793-6.793-6.793 6.793-1.414-1.414 6.793-6.793-6.793-6.793 1.414-1.414 6.793 6.793 6.793-6.793 1.414 1.414-6.793 6.793 6.793 6.793z"/></svg>
